X: 042055
T: Deep Water
C: BB 1/06
L: 1/8
M: 6/8
R: jig
Q: 1/4 = 170 
K: D
D | "D"FAd "Bm" B2 B | "D" ABA AFD |"D" FAd "G" BGB | "Bm7" ABd "A"e2 e |
"D" fdd "G" Bcd | "D" ABA "A7" AGE |"D" DFd "Bm" BAB | "A" AFE "D" D2 :|
A | "D" dcd "Bm" fef | "D" aba fed |"Em" Bef gfe | "Em" bgf "A" e2 B |
"D" Add fdd | "Em" efg "D" fed |"Em" Bef gfe | "A" cAc "D" d2 :|
